build/assets/img/svg/icon-box.svg

<svg width="26" height="26" viewBox="0 0 26 26" fill="none" xmlns="http://www.w3.org/2000/svg">
<path d="M22.1672 8.94245L24.8013 6.28703C24.8792 6.20837 24.9156 6.09766 24.8995 5.98816C24.8833 5.87861 24.8165 5.78308 24.7192 5.73034L16.071 1.04294C15.9341 0.968828 15.7649 0.993344 15.6549 1.10341L12.9999 3.75836L10.3451 1.10359C10.279 1.03703 10.1904 1 10.0972 1C10.0386 1 9.98091 1.01495 9.92935 1.04312L7.15159 2.54819C7.06909 2.59319 7.00909 2.66725 6.98237 2.75725C6.95565 2.84725 6.96549 2.94241 7.01002 3.02491C7.0719 3.13834 7.19049 3.20917 7.3194 3.20917C7.37752 3.20917 7.43565 3.19417 7.48674 3.16652L10.0334 1.78609L12.4179 4.17058L4.39262 8.5083L2.02829 6.1247L6.25023 3.83636C6.33319 3.79183 6.39319 3.71777 6.41991 3.62777C6.44663 3.53777 6.43679 3.44261 6.39179 3.36011C6.33038 3.24667 6.21179 3.17589 6.08288 3.17589C6.02476 3.17589 5.9671 3.19084 5.91554 3.2185L1.2811 5.73053C1.18407 5.78252 1.11657 5.87913 1.10063 5.98834C1.08469 6.09705 1.1213 6.20861 1.19907 6.28694L3.83284 8.94255L1.19888 11.5979C1.12093 11.6766 1.08455 11.7873 1.10068 11.8968C1.11685 12.0063 1.18365 12.1019 1.28096 12.1546L3.97688 13.6158V19.96C3.97684 19.9722 3.97744 19.9843 3.97866 19.9962C3.97918 20.0013 3.98016 20.0063 3.98087 20.0114C3.98176 20.0175 3.98246 20.0237 3.98368 20.0297C3.98518 20.0373 3.98724 20.0448 3.98921 20.0522C3.99015 20.0556 3.99085 20.0591 3.99188 20.0625C3.99418 20.0701 3.99694 20.0774 3.99971 20.0848C4.00093 20.0881 4.00196 20.0914 4.00332 20.0947C4.00604 20.1013 4.00918 20.1077 4.01227 20.114C4.01419 20.118 4.01593 20.122 4.01799 20.1259C4.0208 20.1311 4.02394 20.1362 4.02694 20.1412C4.02985 20.146 4.03262 20.1509 4.03571 20.1557C4.03829 20.1595 4.04119 20.1632 4.04396 20.167C4.04794 20.1725 4.05188 20.1781 4.05619 20.1835C4.05859 20.1864 4.06126 20.1891 4.06374 20.192C4.06871 20.1977 4.07368 20.2034 4.07902 20.2088C4.08179 20.2116 4.08484 20.2141 4.08769 20.2169C4.09304 20.2219 4.09829 20.227 4.10396 20.2316C4.10944 20.2362 4.11526 20.2403 4.12098 20.2445C4.12435 20.247 4.12749 20.2496 4.13096 20.252C4.14104 20.2588 4.15149 20.2651 4.16227 20.2709L12.8311 24.9568C12.8436 24.9637 12.8566 24.9696 12.87 24.9749C12.8729 24.976 12.8758 24.9771 12.8788 24.9781C12.8885 24.9817 12.8984 24.9849 12.9086 24.9876C12.9122 24.9886 12.9159 24.9895 12.9195 24.9904C12.9294 24.9927 12.9393 24.9945 12.9495 24.996C12.9529 24.9964 12.9563 24.9971 12.9598 24.9975C12.973 24.999 12.9864 25 13 25C13.0137 25 13.0271 24.999 13.0403 24.9975C13.0438 24.9971 13.0472 24.9964 13.0507 24.996C13.0608 24.9945 13.0708 24.9927 13.0806 24.9904C13.0842 24.9895 13.0879 24.9886 13.0915 24.9876C13.1016 24.9849 13.1116 24.9817 13.1213 24.9781C13.1242 24.9771 13.1272 24.976 13.1301 24.9749C13.1434 24.9696 13.1564 24.9637 13.1689 24.9568L21.8377 20.2709C21.8485 20.2651 21.8589 20.2588 21.869 20.252C21.8725 20.2496 21.8757 20.2469 21.879 20.2445C21.8848 20.2403 21.8906 20.2361 21.896 20.2316C21.9017 20.227 21.9069 20.2219 21.9123 20.2169C21.9151 20.2141 21.9182 20.2116 21.921 20.2088C21.9263 20.2034 21.9313 20.1977 21.9362 20.192C21.9387 20.1891 21.9414 20.1864 21.9438 20.1835C21.9481 20.1782 21.952 20.1726 21.956 20.167C21.9588 20.1632 21.9617 20.1595 21.9643 20.1557C21.9674 20.1509 21.9701 20.1461 21.973 20.1412C21.9761 20.1362 21.9792 20.1311 21.982 20.1259C21.9841 20.122 21.9858 20.118 21.9877 20.114C21.9908 20.1077 21.9939 20.1013 21.9967 20.0947C21.998 20.0914 21.9991 20.0881 22.0003 20.0848C22.003 20.0775 22.0058 20.0701 22.0081 20.0625C22.0091 20.0591 22.0098 20.0557 22.0108 20.0522C22.0127 20.0448 22.0148 20.0373 22.0163 20.0297C22.0175 20.0237 22.0182 20.0175 22.0191 20.0114C22.0198 20.0063 22.0209 20.0013 22.0213 19.9962C22.0225 19.9842 22.0231 19.9721 22.0231 19.96V13.6158L24.7189 12.1547C24.8159 12.1022 24.8834 12.0056 24.8994 11.8968C24.9153 11.7876 24.8787 11.6761 24.8014 11.5978L22.1672 8.94245ZM15.9665 1.78614L23.9717 6.12494L21.6074 8.50844L13.5822 4.17044L15.9665 1.78614ZM4.49443 13.0966L2.02843 11.76L4.39271 9.37652L12.4179 13.7145L10.0336 16.0988L4.49743 13.0982C4.49644 13.0976 4.49546 13.0971 4.49443 13.0966ZM12.6485 24.0588L4.67996 19.7514V13.9969L9.92921 16.842C9.98195 16.8706 10.0395 16.8845 10.0966 16.8845C10.1877 16.8845 10.2777 16.8491 10.3453 16.7815L12.6485 14.4783V24.0588ZM13.0001 13.2299L5.06851 8.94255L13.0003 4.65512L20.9319 8.9425L13.0001 13.2299ZM21.5071 13.0959C21.5052 13.0969 21.5033 13.0979 21.5014 13.099L19.7499 14.0483C19.667 14.0928 19.607 14.1674 19.5803 14.2574C19.5535 14.3474 19.5634 14.4425 19.6079 14.5251C19.6698 14.6385 19.7884 14.7088 19.9173 14.7088C19.9754 14.7088 20.0335 14.6943 20.0846 14.6666L21.3202 13.9969V19.7515L13.3516 24.0588V14.4782L15.655 16.7815C15.7216 16.8481 15.8097 16.8847 15.9035 16.8847C15.9616 16.8847 16.0193 16.8697 16.0708 16.842L18.8486 15.3364C18.9311 15.2919 18.9911 15.2174 19.0178 15.1274C19.0445 15.0374 19.0347 14.9427 18.9901 14.8602C18.9283 14.7463 18.8097 14.676 18.6803 14.676C18.6227 14.676 18.5645 14.6905 18.5134 14.7186L15.9668 16.0985L13.5823 13.7146L21.6076 9.37633L23.9719 11.7599L21.5071 13.0959Z" fill="black" stroke="black" stroke-width="0.6"/>
</svg>

<svg width="26" height="26" fill="none" xmlns="http://www.w3.org/2000/svg"><path d="M22.167 8.942l2.634-2.655a.352.352 0 00-.082-.557l-8.648-4.687a.352.352 0 00-.416.06L13 3.758l-2.655-2.654a.348.348 0 00-.416-.06L7.152 2.547a.35.35 0 00-.142.477.353.353 0 00.477.142l2.546-1.38 2.385 2.384-8.025 4.337-2.365-2.383L6.25 3.836a.348.348 0 00.142-.476.351.351 0 00-.476-.142L1.28 5.732a.351.351 0 00-.082.556l2.634 2.656-2.634 2.655a.352.352 0 00.082.557l2.696 1.46v6.345c0 .012 0 .024.002.036l.002.015c0 .006.001.013.003.019l.005.022.003.01.008.023.003.01.01.019.005.012.009.015.009.015.008.011.012.016.008.009.015.017.009.008.016.015.017.012.01.008.031.019 8.67 4.686a.336.336 0 00.038.018l.009.003.03.01.01.002a.37.37 0 00.03.006l.01.002a.356.356 0 00.081 0l.01-.002a.367.367 0 00.03-.006l.011-.002a.333.333 0 00.078-.031l8.669-4.686a.366.366 0 00.031-.019l.01-.008a.316.316 0 00.017-.012l.016-.015.009-.008a.344.344 0 00.015-.017l.008-.009.012-.016.008-.011.009-.015a.292.292 0 00.009-.015l.006-.012a.38.38 0 00.009-.02l.003-.01.008-.021.003-.01.005-.023c.002-.006.002-.013.003-.019l.002-.015a.364.364 0 00.002-.036v-6.344l2.696-1.461a.353.353 0 00.082-.557l-2.634-2.656zm-6.2-7.156l8.005 4.339-2.365 2.383-8.025-4.338 2.384-2.384zM4.493 13.096L2.028 11.76l2.365-2.383 8.025 4.337-2.384 2.385-5.537-3a.036.036 0 00-.003-.002zM12.65 24.06l-7.97-4.31v-5.754l5.25 2.845a.35.35 0 00.415-.06l2.303-2.304v9.58zM13 13.229L5.07 8.944 13 4.655l7.932 4.288L13 13.23zm8.507-.133a.16.16 0 00-.006.003l-1.751.95a.35.35 0 10.335.618l1.235-.67v5.755l-7.968 4.307v-9.58l2.303 2.303a.349.349 0 00.416.06l2.778-1.506a.349.349 0 00.142-.476.352.352 0 00-.478-.141l-2.546 1.38-2.385-2.384 8.026-4.339 2.364 2.384-2.465 1.336z" fill="#000" stroke="#000" stroke-width=".6"/></svg>
